X: 41756
T: Vanagon
R: waltz
M: 3/4
K: Amajor
AB|:c3 eef|e3 eag|f3 ef/g/a|fe e2 f2|
e2cBA2|F4A2|B6|1 B4AB:|2 A4 AG||
F2F2A2|d3 efd|e3 AcA|B3 ABc|
d3 efd|e2c2A2|B6|B4AB|
c3 eef|e3 eag|f3 ef/g/a|fe e2 f2|
e2cBA2|F4A2|B6|A6||

